dist/img/funnel.svg

<svg width="78" height="83" viewBox="0 0 78 83" fill="none" xmlns="http://www.w3.org/2000/svg">
<path fill-rule="evenodd" clip-rule="evenodd" d="M39.7098 54.0488H14.6414L23.8074 63.4311C28.6116 68.3488 32.3193 74.229 34.6864 80.6841H44.3479C46.7149 74.229 50.4219 68.3488 55.228 63.4311L64.3937 54.0488H39.7098Z" fill="#192331"/>
<path fill-rule="evenodd" clip-rule="evenodd" d="M35.3653 79.7048H43.6693C46.1029 73.3355 49.7523 67.6328 54.527 62.7468L62.0672 55.0281H16.9674L24.5079 62.7468C29.2815 67.6328 32.9321 73.3355 35.3653 79.7048ZM44.3481 81.6633H34.6865C34.2756 81.6633 33.9082 81.4068 33.7668 81.0209C31.4323 74.6539 27.846 68.9661 23.1068 64.1154L13.9412 54.7331C13.6658 54.4511 13.5863 54.032 13.7391 53.6685C13.8922 53.3058 14.2475 53.0696 14.6415 53.0696H64.3938C64.7855 53.0696 65.142 53.3058 65.2947 53.6685C65.4475 54.032 65.3692 54.4511 65.095 54.7331L55.9293 64.1154C51.1898 68.9661 47.6023 74.6539 45.2678 81.0209C45.1264 81.4068 44.759 81.6633 44.3481 81.6633Z" fill="black"/>
<path fill-rule="evenodd" clip-rule="evenodd" d="M56.082 6.96899L58.9218 2.18091L56.082 6.96899Z" fill="#F3F6F5"/>
<path fill-rule="evenodd" clip-rule="evenodd" d="M56.0782 7.94839C55.9097 7.94839 55.7374 7.90452 55.5807 7.8113C55.1146 7.53555 54.9618 6.93469 55.2399 6.46935L58.0797 1.68127C58.3539 1.21594 58.9571 1.06279 59.4193 1.33854C59.8854 1.61468 60.0382 2.21554 59.764 2.68049L56.9242 7.46857C56.7401 7.77722 56.415 7.94839 56.0782 7.94839Z" fill="black"/>
<path fill-rule="evenodd" clip-rule="evenodd" d="M61.644 15.3635L67.2335 15.8269L61.644 15.3635Z" fill="#F3F6F5"/>
<path fill-rule="evenodd" clip-rule="evenodd" d="M67.2336 16.8061C67.2062 16.8061 67.1787 16.8049 67.1513 16.8026L61.5618 16.3396C61.0252 16.2946 60.6218 15.8214 60.6688 15.2824C60.7119 14.7434 61.1858 14.3486 61.7263 14.3874L67.3119 14.8508C67.8525 14.8954 68.252 15.3686 68.2089 15.9076C68.1658 16.4191 67.7389 16.8061 67.2336 16.8061Z" fill="black"/>
<path fill-rule="evenodd" clip-rule="evenodd" d="M9.94421 12.7251H3.28539C2.74446 12.7251 2.30615 12.2864 2.30615 11.7458C2.30615 11.2049 2.74446 10.7666 3.28539 10.7666H9.94421C10.4851 10.7666 10.9234 11.2049 10.9234 11.7458C10.9234 12.2864 10.4851 12.7251 9.94421 12.7251Z" fill="black"/>
<path fill-rule="evenodd" clip-rule="evenodd" d="M6.61474 16.0545C6.0738 16.0545 5.6355 15.6158 5.6355 15.0753V8.41649C5.6355 7.87556 6.0738 7.43726 6.61474 7.43726C7.15567 7.43726 7.59397 7.87556 7.59397 8.41649V15.0753C7.59397 15.6158 7.15567 16.0545 6.61474 16.0545Z" fill="black"/>
<path fill-rule="evenodd" clip-rule="evenodd" d="M71.4404 68.3457C69.8188 68.3457 68.5027 69.6633 68.5027 71.2834C68.5027 72.9031 69.8188 74.2211 71.4404 74.2211C73.062 74.2211 74.3781 72.9031 74.3781 71.2834C74.3781 69.6633 73.062 68.3457 71.4404 68.3457ZM71.4404 76.1796C68.7416 76.1796 66.5442 73.983 66.5442 71.2834C66.5442 68.5834 68.7416 66.3872 71.4404 66.3872C74.1392 66.3872 76.3366 68.5834 76.3366 71.2834C76.3366 73.983 74.1392 76.1796 71.4404 76.1796Z" fill="#4284F3"/>
<path fill-rule="evenodd" clip-rule="evenodd" d="M64.5857 53.2654C64.5857 56.7268 53.3636 59.5325 39.5172 59.5325C25.6724 59.5325 14.4487 56.7268 14.4487 53.2654C14.4487 49.804 25.6724 46.9983 39.5172 46.9983C53.3636 46.9983 64.5857 49.804 64.5857 53.2654Z" fill="white"/>
<path fill-rule="evenodd" clip-rule="evenodd" d="M39.5172 47.9775C24.8122 47.9775 15.428 51.1091 15.428 53.2654C15.428 55.4213 24.8122 58.5533 39.5172 58.5533C54.2214 58.5533 63.6065 55.4213 63.6065 53.2654C63.6065 51.1091 54.2214 47.9775 39.5172 47.9775ZM39.5172 60.5118C26.5732 60.5118 13.4695 58.0225 13.4695 53.2654C13.4695 48.5079 26.5732 46.019 39.5172 46.019C52.4627 46.019 65.5649 48.5079 65.5649 53.2654C65.5649 58.0225 52.4627 60.5118 39.5172 60.5118Z" fill="black"/>
<path fill-rule="evenodd" clip-rule="evenodd" d="M67.7193 43.0815C67.7193 46.9754 55.091 50.132 39.5172 50.132C23.9415 50.132 11.3152 46.9754 11.3152 43.0815C11.3152 39.1877 23.9415 36.031 39.5172 36.031C55.091 36.031 67.7193 39.1877 67.7193 43.0815Z" fill="white"/>
<path fill-rule="evenodd" clip-rule="evenodd" d="M39.5172 37.0102C22.6508 37.0102 12.2944 40.5461 12.2944 43.0815C12.2944 45.6166 22.6508 49.1528 39.5172 49.1528C56.3836 49.1528 66.74 45.6166 66.74 43.0815C66.74 40.5461 56.3836 37.0102 39.5172 37.0102ZM39.5172 51.1113C25.0159 51.1113 10.3359 48.3529 10.3359 43.0815C10.3359 37.8097 25.0159 35.0518 39.5172 35.0518C54.0178 35.0518 68.6985 37.8097 68.6985 43.0815C68.6985 48.3529 54.0178 51.1113 39.5172 51.1113Z" fill="black"/>
<path fill-rule="evenodd" clip-rule="evenodd" d="M71.4403 34.5044C67.868 38.081 54.9303 40.7312 39.5171 40.7312C21.3456 40.7312 6.61475 37.0485 6.61475 32.5056C6.61475 27.9627 21.3456 24.28 39.5171 24.28C54.9303 24.28 67.868 26.9298 71.4403 30.5068V34.5044Z" fill="white"/>
<path fill-rule="evenodd" clip-rule="evenodd" d="M39.5171 41.7104C23.0922 41.7104 5.6355 38.4841 5.6355 32.5056C5.6355 26.5268 23.0922 23.3008 39.5171 23.3008C55.134 23.3008 68.244 25.9185 72.1336 29.8147C72.5174 30.1974 72.5174 30.8174 72.1336 31.1997C71.7497 31.582 71.1308 31.5812 70.747 31.1985C67.8014 28.2471 56.1289 25.2593 39.5171 25.2593C19.7385 25.2593 7.59397 29.4798 7.59397 32.5056C7.59397 35.5315 19.7385 39.752 39.5171 39.752C56.1289 39.752 67.8014 36.7637 70.747 33.8123C71.1308 33.4296 71.7497 33.4292 72.1336 33.8115C72.5174 34.1934 72.5174 34.8135 72.1336 35.1962C68.244 39.0928 55.134 41.7104 39.5171 41.7104Z" fill="black"/>
<path fill-rule="evenodd" clip-rule="evenodd" d="M56.3601 32.5056C56.3601 34.8311 48.8192 36.7164 39.5172 36.7164C30.2152 36.7164 22.6743 34.8311 22.6743 32.5056C22.6743 30.1802 30.2152 28.2949 39.5172 28.2949C48.8192 28.2949 56.3601 30.1802 56.3601 32.5056Z" fill="#4284F3"/>
<path fill-rule="evenodd" clip-rule="evenodd" d="M39.5172 29.2741C29.0507 29.2741 23.6535 31.5389 23.6535 32.5056C23.6535 33.4719 29.0507 35.7371 39.5172 35.7371C49.9833 35.7371 55.3808 33.4719 55.3808 32.5056C55.3808 31.5389 49.9833 29.2741 39.5172 29.2741ZM39.5172 37.6956C33.3531 37.6956 21.6951 36.611 21.6951 32.5056C21.6951 28.4003 33.3531 27.3157 39.5172 27.3157C45.6813 27.3157 57.3393 28.4003 57.3393 32.5056C57.3393 36.611 45.6813 37.6956 39.5172 37.6956Z" fill="#4284F3"/>
<path fill-rule="evenodd" clip-rule="evenodd" d="M35.4043 16.1591H43.6299V1.56177H35.4043V16.1591Z" fill="black"/>
<path fill-rule="evenodd" clip-rule="evenodd" d="M36.3835 15.1794H42.6506V2.54099H36.3835V15.1794ZM43.6299 17.1379H35.4043C34.8634 17.1379 34.425 16.6996 34.425 16.1587V1.56176C34.425 1.02083 34.8634 0.58252 35.4043 0.58252H43.6299C44.1708 0.58252 44.6091 1.02083 44.6091 1.56176V16.1587C44.6091 16.6996 44.1708 17.1379 43.6299 17.1379Z" fill="black"/>
<path fill-rule="evenodd" clip-rule="evenodd" d="M39.5172 31.6115L30.7612 16.4463H48.2731L39.5172 31.6115Z" fill="black"/>
<path fill-rule="evenodd" clip-rule="evenodd" d="M32.4577 17.4255L39.5172 29.6531L46.5767 17.4255H32.4577ZM39.5172 32.5908C39.1674 32.5908 38.8443 32.4043 38.6692 32.1012L29.9132 16.9359C29.7386 16.6327 29.7386 16.2594 29.9132 15.9567C30.0883 15.6535 30.4115 15.467 30.7613 15.467H48.2732C48.623 15.467 48.9461 15.6535 49.1212 15.9567C49.2959 16.2594 49.2959 16.6327 49.1212 16.9359L40.3652 32.1012C40.1902 32.4043 39.867 32.5908 39.5172 32.5908Z" fill="black"/>
</svg>

<svg width="78" height="83" fill="none" xmlns="http://www.w3.org/2000/svg"><path fill-rule="evenodd" clip-rule="evenodd" d="M39.71 54.049H14.64l9.166 9.382a48.665 48.665 0 0110.88 17.253h9.66a48.64 48.64 0 0110.881-17.253l9.166-9.382H39.71z" fill="#192331"/><path fill-rule="evenodd" clip-rule="evenodd" d="M35.365 79.705h8.304a49.287 49.287 0 0110.858-16.958l7.54-7.719h-45.1l7.54 7.719a49.296 49.296 0 0110.858 16.958zm8.983 1.958h-9.661a.98.98 0 01-.92-.642 47.368 47.368 0 00-10.66-16.906l-9.166-9.382a.98.98 0 01.7-1.663h49.753a.98.98 0 01.701 1.663l-9.166 9.382a47.367 47.367 0 00-10.661 16.906.98.98 0 01-.92.642z" fill="#000"/><path fill-rule="evenodd" clip-rule="evenodd" d="M56.082 6.969l2.84-4.788-2.84 4.788z" fill="#F3F6F5"/><path fill-rule="evenodd" clip-rule="evenodd" d="M56.078 7.948a.976.976 0 01-.838-1.479l2.84-4.788a.977.977 0 011.34-.342.98.98 0 01.344 1.341l-2.84 4.789a.981.981 0 01-.846.48z" fill="#000"/><path fill-rule="evenodd" clip-rule="evenodd" d="M61.644 15.364l5.59.463-5.59-.463z" fill="#F3F6F5"/><path fill-rule="evenodd" clip-rule="evenodd" d="M67.234 16.806a.985.985 0 01-.083-.003l-5.59-.463a.978.978 0 01-.892-1.058.982.982 0 011.057-.895l5.586.464a.98.98 0 01-.078 1.955zm-57.29-4.081H3.285a.98.98 0 010-1.958h6.66a.98.98 0 110 1.958z" fill="#000"/><path fill-rule="evenodd" clip-rule="evenodd" d="M6.615 16.055a.98.98 0 01-.98-.98V8.416a.98.98 0 111.959 0v6.66a.98.98 0 01-.98.979z" fill="#000"/><path fill-rule="evenodd" clip-rule="evenodd" d="M71.44 68.346a2.94 2.94 0 00-2.937 2.937 2.94 2.94 0 002.937 2.938 2.94 2.94 0 002.938-2.938 2.94 2.94 0 00-2.938-2.937zm0 7.834a4.902 4.902 0 01-4.896-4.897c0-2.7 2.198-4.896 4.896-4.896a4.902 4.902 0 014.897 4.896c0 2.7-2.198 4.897-4.897 4.897z" fill="#4284F3"/><path fill-rule="evenodd" clip-rule="evenodd" d="M64.586 53.265c0 3.462-11.222 6.267-25.069 6.267-13.845 0-25.068-2.805-25.068-6.267 0-3.461 11.223-6.267 25.068-6.267 13.847 0 25.069 2.806 25.069 6.267z" fill="#fff"/><path fill-rule="evenodd" clip-rule="evenodd" d="M39.517 47.977c-14.705 0-24.089 3.132-24.089 5.288s9.384 5.288 24.09 5.288c14.703 0 24.088-3.132 24.088-5.288s-9.385-5.288-24.089-5.288zm0 12.535c-12.944 0-26.048-2.49-26.048-7.247s13.104-7.246 26.048-7.246c12.946 0 26.048 2.489 26.048 7.246 0 4.758-13.102 7.247-26.048 7.247z" fill="#000"/><path fill-rule="evenodd" clip-rule="evenodd" d="M67.72 43.081c0 3.894-12.629 7.051-28.203 7.051-15.576 0-28.202-3.157-28.202-7.05 0-3.894 12.627-7.051 28.202-7.051 15.574 0 28.202 3.157 28.202 7.05z" fill="#fff"/><path fill-rule="evenodd" clip-rule="evenodd" d="M39.517 37.01c-16.866 0-27.223 3.536-27.223 6.072 0 2.535 10.357 6.07 27.223 6.07 16.867 0 27.223-3.535 27.223-6.07 0-2.536-10.356-6.072-27.223-6.072zm0 14.101c-14.501 0-29.181-2.758-29.181-8.03 0-5.271 14.68-8.03 29.181-8.03 14.5 0 29.181 2.759 29.181 8.03 0 5.272-14.68 8.03-29.18 8.03z" fill="#000"/><path fill-rule="evenodd" clip-rule="evenodd" d="M71.44 34.504c-3.572 3.577-16.51 6.227-31.923 6.227-18.171 0-32.902-3.683-32.902-8.225 0-4.543 14.73-8.226 32.902-8.226 15.413 0 28.351 2.65 31.923 6.227v3.997z" fill="#fff"/><path fill-rule="evenodd" clip-rule="evenodd" d="M39.517 41.71c-16.425 0-33.882-3.226-33.882-9.204 0-5.98 17.457-9.205 33.882-9.205 15.617 0 28.727 2.618 32.617 6.514a.977.977 0 010 1.385.981.981 0 01-1.387-.002c-2.946-2.95-14.618-5.939-31.23-5.939-19.779 0-31.923 4.22-31.923 7.247 0 3.026 12.144 7.246 31.923 7.246 16.612 0 28.284-2.988 31.23-5.94a.981.981 0 011.387 0 .977.977 0 010 1.384c-3.89 3.897-17 6.514-32.617 6.514z" fill="#000"/><path fill-rule="evenodd" clip-rule="evenodd" d="M56.36 32.506c0 2.325-7.54 4.21-16.843 4.21-9.302 0-16.843-1.885-16.843-4.21 0-2.326 7.541-4.211 16.843-4.211s16.843 1.885 16.843 4.21z" fill="#4284F3"/><path fill-rule="evenodd" clip-rule="evenodd" d="M39.517 29.274c-10.466 0-15.864 2.265-15.864 3.232 0 .966 5.398 3.231 15.864 3.231 10.466 0 15.864-2.265 15.864-3.231 0-.967-5.398-3.232-15.864-3.232zm0 8.422c-6.164 0-17.822-1.085-17.822-5.19 0-4.106 11.658-5.19 17.822-5.19S57.34 28.4 57.34 32.506c0 4.105-11.658 5.19-17.822 5.19z" fill="#4284F3"/><path fill-rule="evenodd" clip-rule="evenodd" d="M35.404 16.16h8.226V1.561h-8.226v14.597z" fill="#000"/><path fill-rule="evenodd" clip-rule="evenodd" d="M36.383 15.18h6.268V2.54h-6.268v12.638zm7.247 1.958h-8.226a.98.98 0 01-.979-.98V1.563a.98.98 0 01.98-.98h8.225c.54 0 .98.439.98.98V16.16a.98.98 0 01-.98.979z" fill="#000"/><path fill-rule="evenodd" clip-rule="evenodd" d="M39.517 31.611l-8.756-15.165h17.512l-8.756 15.165z" fill="#000"/><path fill-rule="evenodd" clip-rule="evenodd" d="M32.458 17.425l7.06 12.228 7.059-12.227h-14.12zm7.06 15.166a.98.98 0 01-.849-.49l-8.756-15.165a.98.98 0 01.848-1.469h17.512a.979.979 0 01.848 1.469L40.365 32.1a.979.979 0 01-.848.49z" fill="#000"/></svg>
